!!!OTL: "Die Nachtigall" SITZT A SCHOENS VOEGERL AUF'M DANNABAUM
!!!ARE: Europa, Mitteleuropa, Oesterreich
!!!SCT: Z1263
!!!YEM: Copyright 1995, estate of Helmut Schaffrath.
**kern
*ICvox
*Ivox
*M3/8
*k[f#]
*G:
{8b
8b
8b
=1
8cc
8b
8cc
=2
8dd
8b
8g}
=3
{8b
8b
8b
=4
8cc
8cc
8cc
=5
4dd
8r}
=6
{8b
8b
8b
=7
8cc
8b
8cc
=8
8dd
8b
8g}
=9
{8b
8b
8b
=10
8cc
16cc
16b
16cc
16a
=11
4g
8r}
==
!!!AGN: Natur und Welt
!!!ONB: ESAC (Essen Associative Code) Database: ZUCCAL
!!!AMT: simple triple
!!!AIN: vox
!!!EED: Helmut Schaffrath
!!!EEV: 1.0
*-
